!!! OTL: Berkowitz401
!!! Chapter: 1
!!! Section: III
!!! Page: 99
!!! Mode: 
!!! Encoder: DJB
**kern
*staff1
*I"Piano
=1-
*clefG2
*k[b-e-]
*g:
*M6/8
8g/L
8f#/
8g/J
8a\L
8b-\
8cc\J
=2
4dd\
8g/
4.ee-\
=3
4a/
8f#/
4.dd\
=4
8f/L
8dd/
8cc/J
8e-/L
8cc/
8b-/J
=5
8d/L
8b-/
8a/J
8g/L
8f#/
8g/J
=6
8g#/L
8a/
8a/J
4.d/
=7
8f/L
8dd/
8cc/J
8b-/L
8a/
8b-/J
=8
!!linebreak:original
8bn\L
8cc\
8dd\J
8ff\L
8ee-\
8cc\J
=9
8ee-\L
8dd\
8b-\J
8dd\L
8cc\
8a\J
=10
8cc\L
8b-\
8a\J
8g/L
8f/
8e-/J
=11
4.d/
4c#/
8en/
=12
8g/L
8b-/
8a/J
8cc\L
8b-\
8a\J
=13
4.g/
8r
4r
==
*-
